X: 40
T: No_132_Moccasin_Game_Song_(a).krn
N: Derived from No_132_Moccasin_Game_Song_(a).krn
%%abc-version 2.0
%%abcx-abcm2ps-target-version 5.9.1 (29 Sep 2008)
%%abc-creator hum2abc beta
%%abcx-conversion-date 2019/03/15 08:35:44
%%humdrum-veritas 4149506486
%%humdrum-veritas-data 4084430818
%%linebreak <none>
%%barnumbers 0
L: 1/8
M: 3/4
K: Ab clef=bass
[K:clef=bass][M:3/4]C3/C/C2B,2 [I:setbarnb 2]| 
C3/C/B,2A,2 | 
B,3/B,/ A,3/B,/ A,3/F,/ ||  
[M:2/4]F,3/F,/ F, z ||  
[M:3/4]A,3/A,/ A,3/B,/ A,F, ||  
[M:2/4]E,3/E,/E,2 | 
C,3/C,/ C, z ||  
[M:3/4]A,3/A,/ A,3/B,/ A,F, ||  
[M:2/4]F,3/F,/F,2 :|]  



